data/chains/V2/eth/eth.branded.svg

<svg width="24" height="24" viewBox="0 0 24 24" fill="none" xmlns="http://www.w3.org/2000/svg">
<path d="M12 2V9.39051L18.2496 12.1857L12 2Z" fill="#8FFCF3"/>
<path d="M11.9995 2L5.75 12.1846L11.9995 9.39168V2Z" fill="#CABCF8"/>
<path d="M12 16.9753V21.9999L18.2496 13.3506L12 16.9753Z" fill="#CBA7F5"/>
<path d="M11.9995 21.9999V16.9753L5.75 13.3506L11.9995 21.9999Z" fill="#74A0F3"/>
<path d="M12 15.8105L18.2496 12.1859L12 9.39062V15.8105Z" fill="#CBA7F5"/>
<path d="M5.75 12.1859L11.9995 15.8105V9.39062L5.75 12.1859Z" fill="#74A0F3"/>
<path fill-rule="evenodd" clip-rule="evenodd" d="M11.9995 15.8104L5.75 12.1857L11.9995 2L18.2491 12.1846L11.9995 15.8104ZM6.16415 11.8906L11.8992 2.54598V9.34035L6.16415 11.8906ZM6.07899 12.1449L11.8992 9.55967V15.5199L6.07899 12.1449ZM12.0987 9.55967V15.5199L17.9143 12.1449L12.0987 9.55967ZM12.0987 9.34035L17.8338 11.8906L12.0987 2.54598V9.34035Z" fill="#202699"/>
<path fill-rule="evenodd" clip-rule="evenodd" d="M11.9995 16.8959L5.75 13.3459L11.9995 21.9998L18.2491 13.3447L11.9995 16.8959ZM6.44997 13.97L11.8992 17.0709V21.5204L6.44997 13.97ZM12.0987 17.0709V21.5204L17.5491 13.97L12.0987 17.0709Z" fill="#202699"/>
</svg>

<svg xmlns="http://www.w3.org/2000/svg" width="24" height="24" fill="none" viewBox="0 0 24 24">
    <path fill="#8FFCF3" d="M12 2v7.39l6.25 2.796z"/>
    <path fill="#CABCF8" d="M12 2 5.75 12.185 12 9.392z"/>
    <path fill="#CBA7F5" d="M12 16.975V22l6.25-8.65z"/>
    <path fill="#74A0F3" d="M12 22v-5.025l-6.25-3.624z"/>
    <path fill="#CBA7F5" d="m12 15.81 6.25-3.624L12 9.39z"/>
    <path fill="#74A0F3" d="M5.75 12.186 12 15.81V9.39z"/>
    <path fill="#202699" fill-rule="evenodd" d="m12 15.81-6.25-3.624L12 2l6.25 10.185zm-5.836-3.92L11.9 2.547V9.34zm-.085.255 5.82-2.585v5.96zm6.02-2.585v5.96l5.815-3.375zm0-.22 5.735 2.55-5.735-9.344z" clip-rule="evenodd"/>
    <path fill="#202699" fill-rule="evenodd" d="m12 16.896-6.25-3.55L12 22l6.25-8.655zM6.45 13.97l5.45 3.1v4.45zm5.649 3.1v4.45l5.45-7.55z" clip-rule="evenodd"/>
</svg>
